X: 152
T:Shirley's Reel
T:Young Scotty
M:6/8
L:1/8
C:Charlie Sherritt
S:Will Atkinson
R:Jig
B:`gfe`edc BAGBAG
Z:Alistair Anderson
Z:Chas Blacker
Z:Alistair Anderson
Z:Chas Blacker
K:G
ed |c2 Bc BA A2| Acea fe e2| faaf ecce|afeA  cBBe|A2 Ac BA A2|Acea fe e2
|faaf eccA|BEGB A2:||cd|e2 ef eAce|dfaf eccd|e2 ef eccB|Adcd B2 cd|e2 ef
 eAce|dfaf ecce|d2 fd ceec|BEGB A2:||
D|G2G G2B|AFD DEF|G2B d2B|def g2f|e2c cde|d2B G2A/2B/2|c2B A2G|GFE DEF|G
2G G2B|AFD DEF|G2B d2B|def g2f|e2c gfe|edc BAG|FAF DEF|G3 G2||A|Bee e2f|
g3 g2e|f2d agf|e3 e2d|Add d2e|f3 f2g|a2A gfe|ded cBA|G2G G2B|AFD DEF|G2B
 d2B|def g2f|e2c gfe|edc BAG|FAF DEF|G3 G2||

